!!!OTL: Der wunderliche Kittel (263), S. 561f
!!!id: T0453
**kern
*clefG2
*k[b-]
*F:
*M2/4
{8f
8g
8a
8b-
=2
4cc
8cc}
=3
{8cc
=4
8dd
8ee
8ff
8dd
=5
8dd
8cc
8cc}
=6
{8cc
=7
8dd
8ee
8ff
8dd
=8
8dd
8cc
8cc}
=9
{8cc
=10
8cc
8b-
8b-
8b-
=11
4a
4a
=12
4cc
8g
8g
=13
4g
8f}
=14
{8c
=15
8f
8g
8a
16b-
16b-
=16
8cc
8cc
8cc}
=17
{8cc
=18
8dd
8ee
8ff
8dd
=19
8dd
8cc
8cc}
=20
{8cc
=21
8dd
8ee
8ff
8dd
=22
8dd
8cc
8cc}
=23
{8cc
=24
8cc
8b-
8b-
8b-
=25
8a
8a
8a}
=26
{8a
=27
8cc
8cc
8g
8g
=28
8g
8g
8f}
8r
=29
{8f
8g
8a
8b-
=30
4cc
4ff
=31
4cc}
4r
=32
{8cc
8cc
8b-
8b-
=33
4a
8a
8a
=34
4cc
4g
=35
4f}
4r
==
*-
!!!minrhy: 16
!!!meters: 2/4 ]  ZZ[11
!!!cut: Der wunderliche Kittel (263), S. 561f
!!!reg: Luxemburg
!!!trd: Singendes Volk, Esch-Alzette, 1937 posth.
!!!rhy1: X_X_X_X_  X__X_   (x2)
!!!rhy2: X_  X_X_X_X_  X_X_X_
!!!key: T0453  16  F 2/4 ]  ZZ[11
!!!mod: HEPTATONIK IONISCH]  AMBITUS[11
!!!kad: 55515553151
!!!akz: 15_66_66_5352_15_66_66_53_52_155_5351_
!!!fot: 'a__b__b__c__av_b__b__cv_d__aw_cw_
!!!for: 'a__b__b__aw_c__b__b__b__bv_aw_aw_
!!!fok: '/__^__^__\__/__^__^__\__^d_^a_\__
!! PHRAS[VORWIEGEND AUFTAKTIG]
!!!fkt: Scherz-, Spiel-, Spottlied
!!!bem: Heffingen, ? P. Wagener, 2.6.1935, Bruchst&uuml;ck
!! THILL; Mathias
!! PR[58] 2K[0] 2G[2] 3K[4] 3G[5] 4A[4] 4Ü[0] 5A[0] 6K[0] 6G[2]
!! 7K[0] 7G[0] 8A[0] MEHR[0] SI[16] ABS[57] SR[2] SP[14]
!! ST[16] 2k[4] 2g[14] 3k[5] 3g[4] 4d[0] 4ü[0] 5d[0] 6k[0] 6g[0]
!! 7k[0] 7g[0] 8d[0] mehr[0] si[26] dm[-10] sr[18] sp[9]
!! 1F[13] 2F[75] 3F[11] 4F[0] LF[0] 2P[0] 3P[0] 4P[0] TRI[0] DF[3] AB[61]
!! TF[0] U3K[0] U3[0] U4[0] U4Ü[0] U5[0] U6K[0] U6[0] U7K[0] U7[0]
!! N1[9] N2K[0] N2[2] N3K[0] N3[9] N4[3] N4Ü[0] N5[57] N6K[0] N6[10]
!!!n7k: 0] N7[9] O1[2] O2K[0] O2[0] O3K[0] O3[0] HÖ[0
!!!RNB: symbol: &uuml;  = u umlaut (UTF-8: Ã¼)
